symbols/web/content_paste_off/materialsymbolsoutlined/content_paste_off_wght100grad200_20px.svg

<svg xmlns="http://www.w3.org/2000/svg" height="20" width="20"><path d="m17.104 14.333-1.208-1.208V4.833q0-.25-.208-.458-.209-.208-.459-.208h-2.146v2.625h-3.5L5.75 2.958h2.688q.291-.5.666-.76.375-.26.917-.26.458 0 .864.26.407.26.698.76h3.646q.813 0 1.344.532.531.531.531 1.343ZM10.021 4.312q.25 0 .417-.166.166-.167.166-.417 0-.25-.166-.416-.167-.167-.417-.167-.25 0-.417.167-.166.166-.166.416 0 .25.166.417.167.166.417.166Zm4.562 11.584L4.146 5.438v9.791q0 .25.208.459.208.208.458.208Zm-9.771 1.208q-.812 0-1.343-.531-.531-.531-.531-1.344V4.646q0-.104.01-.177T3 4.292l-1-1 .833-.834 14.688 14.709-.833.833-.959-.958q-.104.041-.177.052-.073.01-.177.01Z"/></svg>

<svg xmlns="http://www.w3.org/2000/svg" height="20" width="20"><path d="M16.688 18 15.729 17.042Q15.646 17.083 15.562 17.094Q15.479 17.104 15.375 17.104H4.812Q4 17.104 3.469 16.573Q2.938 16.042 2.938 15.229V4.646Q2.938 4.542 2.948 4.458Q2.958 4.375 3 4.292L2 3.292L2.833 2.458L17.521 17.167ZM4.812 15.896H14.583L4.146 5.438V15.229Q4.146 15.479 4.354 15.688Q4.562 15.896 4.812 15.896ZM17.104 14.333 15.896 13.125V4.833Q15.896 4.583 15.688 4.375Q15.479 4.167 15.229 4.167H13.083V6.792H9.583L5.75 2.958H8.104Q8.125 2.271 8.698 1.771Q9.271 1.271 10.042 1.271Q10.792 1.271 11.333 1.781Q11.875 2.292 11.938 2.958H15.229Q16.042 2.958 16.573 3.49Q17.104 4.021 17.104 4.833ZM10 4.229Q10.375 4.229 10.635 3.969Q10.896 3.708 10.896 3.333Q10.896 2.979 10.635 2.729Q10.375 2.479 10 2.479Q9.646 2.479 9.396 2.729Q9.146 2.979 9.146 3.354Q9.146 3.708 9.396 3.969Q9.646 4.229 10 4.229Z"/></svg>
